X:1
T:Title
%%score { 1 | 2 }
L:1/8
M:3/4
K:D
V:1 treble nm="Grand Piano"
V:2 bass 
V:1
 z2 z2[Q:1/4=100] [FA]2 | [Fd]3 [Ac] [GB][FA] | [FA]>[EG] [A,DF]2 [A,DF]2 | %3
 [EGA]3 [DFA] [CEG][A,CA] |[M:2/4] [A,DF]4 |[M:1/4] [A,FA]2 |[M:3/4] [Fd]3 [Ac] [GB][FA] | %7
 [FA]>[EG] F2 F2 | E^G [GB]2 [Gc]2 |[M:2/4] A4 |[M:1/4] A2 |[M:3/4] A3 A Bc | %12
 [Fd][GB] [FA]2 [A,DF]2 | [CEA]>[CGA] [EGA][DFA] [CEG][A,CE] |[M:2/4] [A,DF]4 |[M:1/4] [A,FA]2 | %16
[M:3/4] [Fd]3 [Ac] [GB][FA] |[M:4/4] [FA]>[A,DF] [B,D]4 [G,DE]2 | %18
 [A,DF][DFA][DFA][A,DF] [A,DF]3[K:bass] [G,CE] |[M:3/4] [F,D]6 |] %20
V:2
 z2 z2 [D,A,]2 | [D,A,]3 [D,D] [D,D][D,D] | [D,D]>[D,D] D,2 D,2 | A,,3 A,, A,,A,, |[M:2/4] D,4 | %5
[M:1/4] D,2 |[M:3/4] [D,A,]3 [D,D] [D,D][D,D] | [D,D]>[D,D] [D,A,D]2 [D,A,D]2 | %8
 [E,A,C][E,B,E] [E,D]2 [E,E]2 |[M:2/4][K:treble] [A,C]4 |[M:1/4] [A,C]2 | %11
[M:3/4] [A,CG]3 [A,CG] [A,CG][A,G] | [D,A,][D,D] [D,D]2 D,2 | A,,>A,, A,,A,, A,,A,, |[M:2/4] D,4 | %15
[M:1/4] D,2 |[M:3/4] [D,A,]3 [D,D] [D,D][D,D] |[M:4/4] [D,D]>D, B,,4 B,,2 | A,,A,,A,,A,, A,,3 A,, | %19
[M:3/4] D,6 |] %20

